X: 1
T:Oh, The Britches Full of Stitches
M:C|
L:1/8
Q:80
C:
S:March 2/4
K:HP
|: A3/2B/2{e}cA|
{gBd}BA{d}cA|
{g}A3/2B/2cA|  !
BA{gfg}fe|
A3/2B/2{e}cA|
{gBd}((3BA{e}cde)|  !
{g}A3/2B/2{gAGAG}Af|1
{gfg}fe{gef}e2:| |
|2 {gfg}feAc|] |:  !
{g}e3/2f/2{gef}ec|
{gBd}((3BA{e}cde)|
{g}A3/2f/2ec|  !
BA{gfg}fe|
{g}e3/2f/2{gef}ec|
{gBd}BABc|  !
{g}A3/2B/2{gAGAG}Af|
{gfg}fe{gef}e2:|
